public/images/sponsors/Assurant.svg

<svg width="293" height="56" viewBox="0 0 293 56" fill="none" xmlns="http://www.w3.org/2000/svg">
<path d="M134.531 33.4045C136.954 33.4045 138.464 32.0413 138.464 30.2626C138.464 27.6181 135.815 26.6585 133.526 25.1519C130.443 23.3177 128.837 21.5713 128.837 18.8155C128.837 15.3665 131.512 12.8945 135.603 12.8945C137.549 12.8945 139.467 13.3626 141.198 14.2577L141.076 17.8384C138.999 16.7005 137.299 16.0656 135.887 16.0656C133.778 16.0656 132.581 17.1129 132.581 18.6312C132.581 20.6761 135.147 21.697 137.235 23.0603C140.64 25.1051 142.398 27.0505 142.398 30.1602C142.398 34.0569 139.501 36.8448 134.72 36.8448C132.646 36.855 130.596 36.4014 128.717 35.5166L128.38 31.1139C130.67 32.6029 132.654 33.3957 134.542 33.3957M112.478 33.4045C114.9 33.4045 116.408 32.0413 116.408 30.2626C116.408 27.6181 113.762 26.6585 111.472 25.1519C108.39 23.3177 106.786 21.5713 106.786 18.8155C106.786 15.3665 109.456 12.8945 113.552 12.8945C115.499 12.8945 117.419 13.3626 119.151 14.2577L119.029 17.8384C116.951 16.7005 115.252 16.0656 113.843 16.0656C111.731 16.0656 110.537 17.1129 110.537 18.6312C110.537 20.6761 113.099 21.697 115.191 23.0603C118.575 25.1051 120.348 27.0505 120.348 30.1602C120.348 34.0569 117.454 36.8448 112.675 36.8448C110.601 36.8565 108.55 36.4001 106.67 35.5166L106.333 31.1139C108.631 32.6029 110.61 33.3957 112.495 33.3957M154.969 26.7551C154.969 31.0876 156.79 33.305 160.34 33.305C163.89 33.305 165.724 31.0496 165.724 26.6556L165.724 13.6697L169.695 13.6697L169.695 26.7141C169.695 33.2758 166.159 36.8214 160.358 36.8214C154.556 36.8214 151.003 32.8633 151.003 26.7785L151.003 13.6697L154.969 13.6697L154.969 26.7551ZM190.307 20.3221C190.307 16.8204 186.527 16.8672 183.323 16.8672L183.323 23.8209C185.824 23.8209 190.307 24.0725 190.307 20.3221ZM179.48 13.6697L184.639 13.6697C187.477 13.6697 189.674 13.854 191.591 15.2202C193.18 16.285 194.156 18.0666 194.2 19.9886C194.2 22.9345 192.471 25.149 189.328 26.2285L196.527 36.0695L191.975 36.0695L185.209 26.7638L183.323 26.7638L183.323 36.0695L179.485 36.0695L179.485 13.6668M269.499 36.0842L265.568 36.0842L265.568 17.0895L258.053 17.0895L258.053 13.6697L276.98 13.6697L276.98 17.0895L269.499 17.0895L269.499 36.0842ZM85.3403 27.1412C86.2874 24.3709 87.5366 21.7175 89.0618 19.2251C90.5958 21.7175 91.8537 24.3738 92.8124 27.1412L85.3403 27.1412ZM89.2042 12.9384L89.0386 12.8506L88.8701 12.9384C83.3445 21.2085 81.2498 25.6844 77.9089 36.0842L81.8948 36.0842C82.2579 34.7209 83.205 31.8862 83.6757 30.5493L94.4132 30.5493C94.8867 31.8891 95.8309 34.7151 96.1882 36.0842L100.163 36.0842C96.778 25.5908 94.6282 21.071 89.1955 12.9384M209.127 27.1412C210.077 24.3738 211.323 21.7175 212.848 19.2251C214.379 21.7204 215.64 24.3738 216.605 27.1412L209.127 27.1412ZM212.991 12.9384L212.822 12.8682L212.657 12.9559C207.125 21.2261 205.033 25.7019 201.692 36.1017L205.667 36.1017C206.03 34.7385 206.974 31.9038 207.451 30.5669L218.203 30.5669C218.676 31.9067 219.62 34.7326 219.986 36.1017L223.958 36.1017C220.573 25.6083 218.429 21.0886 212.994 12.9559M235.297 22.1476L249.898 36.8448L250.087 36.7863L250.145 36.602L250.145 13.6697L246.371 13.6697L246.371 27.5332L231.77 12.8331L231.581 12.8887L231.52 13.0759L231.52 36.0842L235.297 36.0842L235.297 22.1476ZM287.677 16.051L287.677 17.8911C287.848 17.8999 288.02 17.8999 288.191 17.8911C288.543 17.9233 288.894 17.856 289.205 17.6922C289.405 17.4991 289.501 17.2212 289.466 16.9433C289.466 16.3319 289.074 16.0276 288.29 16.0305L287.979 16.0305L287.677 16.051ZM289.856 20.8867L288.464 18.523L287.677 18.523L287.677 20.8867L286.892 20.8867L286.892 15.3752L288.296 15.3752C289.612 15.3752 290.268 15.8843 290.268 16.9023C290.278 17.2339 290.18 17.5595 289.989 17.8299C289.798 18.1002 289.525 18.3004 289.211 18.4001L290.707 20.8867L289.859 20.8867L289.856 20.8867ZM292.189 18.1866C292.189 16.1183 290.524 14.4391 288.47 14.4362C286.416 14.4362 284.748 16.1125 284.746 18.1807C284.746 20.249 286.41 21.9281 288.464 21.9311C289.452 21.9311 290.399 21.5361 291.099 20.834C291.811 20.1407 292.206 19.1841 292.189 18.1866ZM284.031 18.1866C284.028 15.7146 286.012 13.7078 288.47 13.7019C290.925 13.699 292.918 15.697 292.924 18.1719C292.926 20.6439 290.942 22.6507 288.484 22.6566C287.305 22.6566 286.172 22.1885 285.338 21.3489C284.917 20.94 284.583 20.4483 284.359 19.9044C284.134 19.3604 284.022 18.7757 284.031 18.1866ZM20.1366 20.8516C23.5502 26.4303 26.6791 32.1232 30.3745 37.4152C34.0175 42.6371 38.2504 47.4552 42.3089 52.5805C38.4185 54.4452 34.1284 55.3058 29.8254 55.0847C29.2734 55.0613 28.6401 54.5113 28.2246 54.0637C21.6612 46.6111 16.0556 38.356 11.5402 29.4932C11.2178 28.8672 11.3979 27.9545 11.4356 27.1792C11.4356 26.8692 11.7726 26.5854 11.8453 26.2694C13.0335 21.7965 15.9793 20.1173 20.1366 20.8487L20.1366 20.8516ZM47.7706 0.212891C49.017 1.26018 50.0105 2.02957 50.9315 2.88086C56.8929 8.36891 57.4681 10.0013 54.2666 17.3879C51.4311 23.932 47.8927 30.1632 44.9148 36.6458C43.5146 39.7117 41.2398 40.4781 38.3143 40.364C36.821 40.3026 35.2697 40.9316 34.0205 39.2173C31.4058 35.6512 31.3128 35.736 33.6573 31.9623C39.5403 22.484 44.2292 12.4615 47.1896 1.66096C47.3116 1.27189 47.4975 0.900359 47.7677 0.218741L47.7706 0.212891ZM0.279785 21.9837C0.544304 17.7142 1.83435 13.5731 4.03908 9.91645C4.43127 9.23483 5.43647 8.74336 6.2441 8.57661C15.8602 6.62537 25.6797 5.90572 35.4759 6.43522C36.2923 6.4791 37.1668 7.21338 37.8437 7.82771C38.5206 8.44497 38.9331 9.31382 39.4473 10.0832C41.1381 12.6312 40.9696 15.6766 38.9331 17.9642C38.7637 18.1281 38.5639 18.2566 38.345 18.3425C38.1261 18.4283 37.8926 18.4698 37.6577 18.4645C25.0919 17.6336 12.4748 18.8216 0.279785 21.9837Z" fill="#D1D1D1"/>
</svg>

<svg xmlns="http://www.w3.org/2000/svg" fill="none" viewBox="0 0 293 56">
  <path fill="#D1D1D1" d="M134.531 33.405c2.423 0 3.933-1.364 3.933-3.142 0-2.645-2.649-3.605-4.938-5.111-3.083-1.834-4.689-3.58-4.689-6.337 0-3.449 2.675-5.92 6.766-5.92 1.946 0 3.864.468 5.595 1.363l-.122 3.58c-2.077-1.137-3.777-1.772-5.189-1.772-2.109 0-3.306 1.047-3.306 2.565 0 2.045 2.566 3.066 4.654 4.43 3.405 2.044 5.163 3.99 5.163 7.1 0 3.896-2.897 6.684-7.678 6.684a13.9 13.9 0 0 1-6.003-1.328l-.337-4.403c2.29 1.489 4.274 2.282 6.162 2.282m-22.064.008c2.422 0 3.93-1.363 3.93-3.141 0-2.645-2.646-3.605-4.936-5.111-3.082-1.834-4.686-3.58-4.686-6.337 0-3.449 2.67-5.92 6.766-5.92 1.947 0 3.867.468 5.599 1.363l-.122 3.58c-2.078-1.137-3.777-1.772-5.186-1.772-2.112 0-3.306 1.047-3.306 2.565 0 2.045 2.562 3.066 4.654 4.43 3.384 2.044 5.157 3.99 5.157 7.1 0 3.896-2.894 6.684-7.673 6.684a13.9 13.9 0 0 1-6.005-1.328l-.337-4.403c2.298 1.489 4.277 2.282 6.162 2.282m42.474-6.64c0 4.332 1.821 6.549 5.371 6.549s5.384-2.255 5.384-6.65V13.67h3.971v13.044c0 6.562-3.536 10.107-9.337 10.107s-9.355-3.958-9.355-10.042v-13.11h3.966zm35.338-6.434c0-3.502-3.78-3.455-6.984-3.455v6.954c2.501 0 6.984.252 6.984-3.499M179.48 13.67h5.159c2.838 0 5.035.184 6.952 1.55a5.9 5.9 0 0 1 2.609 4.769c0 2.945-1.729 5.16-4.872 6.24l7.199 9.84h-4.552l-6.766-9.305h-1.886v9.305h-3.838V13.667m90.014 22.417h-3.931V17.09h-7.515v-3.42h18.927v3.42h-7.481zM85.34 27.141a40 40 0 0 1 3.722-7.916 40.2 40.2 0 0 1 3.75 7.916zm3.864-14.203-.165-.087-.169.087c-5.526 8.27-7.62 12.746-10.961 23.146h3.986c.363-1.363 1.31-4.198 1.78-5.535h10.738c.474 1.34 1.418 4.166 1.775 5.535h3.975c-3.385-10.493-5.535-15.013-10.968-23.146m119.932 14.203a40 40 0 0 1 3.721-7.916 41 41 0 0 1 3.757 7.916zm3.864-14.203-.169-.07-.165.088c-5.532 8.27-7.624 12.746-10.965 23.146h3.975c.363-1.363 1.307-4.198 1.784-5.535h10.752c.473 1.34 1.417 4.166 1.783 5.535h3.972c-3.385-10.494-5.529-15.013-10.964-23.146m22.303 9.192 14.601 14.697.189-.059.058-.184V13.67h-3.774v13.863l-14.601-14.7-.189.056-.061.187v23.008h3.777zm52.38-6.097v1.84q.257.014.514 0c.352.032.703-.035 1.014-.199a.89.89 0 0 0 .261-.749q0-.916-1.176-.913h-.311zm2.179 4.836-1.392-2.364h-.787v2.364h-.785v-5.512h1.404q1.973 0 1.972 1.527a1.53 1.53 0 0 1-1.057 1.498l1.496 2.487zm2.333-2.7c0-2.069-1.665-3.748-3.719-3.75-2.054 0-3.722 1.676-3.724 3.744 0 2.068 1.664 3.747 3.718 3.75a3.72 3.72 0 0 0 2.635-1.097 3.6 3.6 0 0 0 1.09-2.647m-8.158 0c-.003-2.472 1.981-4.48 4.439-4.485 2.455-.003 4.448 1.995 4.454 4.47.002 2.472-1.982 4.479-4.44 4.485a4.43 4.43 0 0 1-3.146-1.308 4.32 4.32 0 0 1-1.307-3.162M20.137 20.852c3.413 5.578 6.542 11.271 10.238 16.563 3.642 5.222 7.875 10.04 11.934 15.166a25.8 25.8 0 0 1-12.484 2.504c-.552-.024-1.185-.574-1.6-1.021a118.7 118.7 0 0 1-16.685-24.57c-.322-.627-.142-1.54-.104-2.315 0-.31.337-.594.41-.91 1.188-4.472 4.133-6.152 8.29-5.42zM47.77.212c1.246 1.048 2.24 1.818 3.16 2.669 5.962 5.488 6.537 7.12 3.336 14.507-2.836 6.544-6.374 12.775-9.352 19.258-1.4 3.066-3.675 3.832-6.6 3.718-1.494-.061-3.045.568-4.294-1.147-2.615-3.566-2.708-3.481-.364-7.255 5.883-9.478 10.572-19.5 13.533-30.301.122-.39.308-.76.578-1.442zM.28 21.985A26.55 26.55 0 0 1 4.04 9.916c.391-.681 1.396-1.173 2.204-1.34a115.6 115.6 0 0 1 29.232-2.14c.816.043 1.69.777 2.368 1.392.677.617 1.09 1.486 1.603 2.255 1.691 2.548 1.523 5.594-.514 7.881a1.78 1.78 0 0 1-1.275.5A117.9 117.9 0 0 0 .28 21.985"/>
</svg>
